X:217
T: KENNST DU DAS LAND WO DIE ZITRONEN BLUEHN
N: B0259A
O: Europa, Mitteleuropa, Deutschland
R: Stimmungs - Lied, Sehnsucht
M: 4/4
L: 1/16
K: Eb
G2G2A2 | B6B2e3dc2B2 | B4A4z2
d2d2e2 | f6d2B2c2F2A2 | A4G4z2
e2e2d2 | c6c2c2=B2c2d2 | c4B4z2
B2d2B2 | e6c2=A2F2G2_A2 | B8z2
A2A2B2 | G8z4E4 | c8z4A4 | d8z2
B2c2d2 | e8e2e2d2c2 | c4B8D4 | E8z2

